app/img/offer-egg-3.svg

<svg width="26" height="26" viewBox="0 0 26 26" fill="none" xmlns="http://www.w3.org/2000/svg">
<g clip-path="url(#clip0)">
<path fill-rule="evenodd" clip-rule="evenodd" d="M25.5924 12.6715C25.7355 12.8671 25.7356 13.1331 25.5924 13.3291C25.4827 13.4789 24.0579 15.4015 21.7891 17.2841C19.5142 19.1717 16.4309 20.9858 12.9997 20.9858C9.5685 20.9858 6.48505 19.1717 4.2102 17.2841C1.94068 15.4009 0.515741 13.4777 0.407074 13.3289C0.264032 13.1328 0.264048 12.867 0.407124 12.671C0.51688 12.5208 1.94159 10.5985 4.21019 8.71609C6.48505 6.82854 9.5685 5.0144 12.9997 5.0144C16.4309 5.0144 19.5142 6.82853 21.7891 8.71613C24.0585 10.5993 25.4835 12.5226 25.5924 12.6715ZM1.71711 12.8089L1.56016 12.9997L1.71732 13.1904C2.39288 14.0098 3.87159 15.6731 5.8438 17.1338C7.81192 18.5915 10.3039 19.8716 12.9997 19.8716C15.701 19.8716 18.1933 18.5923 20.1604 17.1349C22.1315 15.6745 23.6075 14.0115 24.2822 13.1913L24.4392 13.0005L24.2821 12.8099C23.6062 11.99 22.1274 10.3267 20.1552 8.8661C18.1872 7.40851 15.6954 6.12868 12.9997 6.12868C10.2984 6.12868 7.80605 7.40796 5.83893 8.86534C3.86781 10.3257 2.39185 11.9887 1.71711 12.8089Z" fill="#00F0FF"/>
<path fill-rule="evenodd" clip-rule="evenodd" d="M8.15679 13.0001C8.15679 10.33 10.3296 8.1572 12.9997 8.1572C15.6697 8.1572 17.8425 10.33 17.8425 13.0001C17.8425 15.6701 15.6697 17.843 12.9997 17.843C10.3296 17.843 8.15679 15.6701 8.15679 13.0001ZM9.27112 13.0001C9.27112 15.0563 10.9434 16.7286 12.9997 16.7286C15.0559 16.7286 16.7282 15.0563 16.7282 13.0001C16.7282 10.9439 15.0559 9.27153 12.9997 9.27153C10.9434 9.27153 9.27112 10.9439 9.27112 13.0001Z" fill="#00F0FF"/>
</g>
<defs>
<clipPath id="clip0">
<rect width="26" height="26" fill="white" transform="translate(-0.000488281 0.000244141)"/>
</clipPath>
</defs>
</svg>

<svg width="26" height="26" fill="none" xmlns="http://www.w3.org/2000/svg"><g clip-path="url(#clip0)" fill-rule="evenodd" clip-rule="evenodd" fill="#00F0FF"><path d="M25.592 12.671a.557.557 0 010 .658c-.11.15-1.534 2.072-3.803 3.955-2.275 1.888-5.358 3.702-8.79 3.702-3.43 0-6.514-1.814-8.789-3.702C1.94 15.401.516 13.478.407 13.33a.558.558 0 010-.658c.11-.15 1.535-2.072 3.803-3.955C6.485 6.83 9.57 5.014 13 5.014c3.43 0 6.514 1.815 8.79 3.702 2.268 1.883 3.694 3.807 3.802 3.956zm-23.875.138l-.157.19.157.191c.676.82 2.155 2.483 4.127 3.944 1.968 1.457 4.46 2.738 7.156 2.738 2.701 0 5.193-1.28 7.16-2.737 1.971-1.46 3.448-3.124 4.122-3.944l.157-.19-.157-.191c-.676-.82-2.155-2.483-4.127-3.944C18.187 7.41 15.695 6.13 13 6.13c-2.702 0-5.194 1.279-7.161 2.736-1.971 1.46-3.447 3.124-4.122 3.944z"/><path d="M8.157 13A4.849 4.849 0 0113 8.157 4.849 4.849 0 0117.843 13 4.849 4.849 0 0113 17.843 4.849 4.849 0 018.157 13zm1.114 0A3.732 3.732 0 0013 16.73 3.732 3.732 0 0016.728 13 3.732 3.732 0 0013 9.272 3.732 3.732 0 009.27 13z"/></g><defs><clipPath id="clip0"><path fill="#fff" d="M0 0h26v26H0z"/></clipPath></defs></svg>
